48x48/apps/KittehPlayer.svg

<svg xmlns="http://www.w3.org/2000/svg" width="48" height="48" version="1">
 <rect style="opacity:0.2" width="32" height="32" x="8" y="13" rx="10" ry="10"/>
 <path style="fill:#df3d6b" d="M 17 4 C 17 4 12 9.0000004 12 13 L 12 16 L 36 16 L 36 13 C 36.000001 9 31 4 31 4 C 31 4 26 9 26 13 L 22 13 C 22.000001 9.0000004 17 4 17 4 z"/>
 <path style="opacity:0.3" d="M 17 8 C 17 8 14 11.000391 14 13.400391 L 20 13.400391 C 20.000001 11.000391 17 8 17 8 z M 31 8 C 31 8 28 11.000391 28 13.400391 L 34 13.400391 C 34.000001 11.000391 31 8 31 8 z"/>
 <path style="opacity:0.1;fill:#f4f4f7" d="M 17 4 C 17 4 12 9.0000004 12 13 L 12.105469 13 C 12.79554 9.2140405 17 5 17 5 C 17 5 21.20446 9.2140405 21.894531 13 L 22 13 C 22.000001 9.0000004 17 4 17 4 z M 31 4 C 31 4 26 9 26 13 L 26.105469 13 C 26.79554 9.2140405 31 5 31 5 C 31 5 35.20446 9.2140405 35.894531 13 L 36 13 C 36.000001 9 31 4 31 4 z"/>
 <rect style="fill:#f45884" width="32" height="32" x="8" y="12" rx="10" ry="10"/>
 <path style="opacity:0.1;isolation:isolate" d="M 19.5,17 C 15.353649,17 12,20.353649 12,24.5 v 9 c 0,4.146351 3.353649,7.5 7.5,7.5 h 9 c 4.146351,0 7.5,-3.353649 7.5,-7.5 v -9 C 36,20.353649 32.646351,17 28.5,17 Z m 0,1 h 9 c 3.609649,0 6.5,2.890351 6.5,6.5 v 9 c 0,3.609649 -2.890351,6.5 -6.5,6.5 h -9 C 15.890351,40 13,37.109649 13,33.5 v -9 C 13,20.890351 15.890351,18 19.5,18 Z M 19,22.001953 V 36 l 12,-7.001953 z"/>
 <path id="polygon842" style="isolation:isolate;fill:#464646" d="M 19.5 16 C 15.353649 16 12 19.353649 12 23.5 L 12 32.5 C 12 36.646351 15.353649 40 19.5 40 L 28.5 40 C 32.646351 40 36 36.646351 36 32.5 L 36 23.5 C 36 19.353649 32.646351 16 28.5 16 L 19.5 16 z M 19.5 17 L 28.5 17 C 32.109649 17 35 19.890351 35 23.5 L 35 32.5 C 35 36.109649 32.109649 39 28.5 39 L 19.5 39 C 15.890351 39 13 36.109649 13 32.5 L 13 23.5 C 13 19.890351 15.890351 17 19.5 17 z M 19 21.001953 L 19 35 L 31 27.998047 L 19 21.001953 z"/>
 <path style="fill:#f4f4f7;opacity:0.2" d="M 18 12 C 12.46 12 8 16.46 8 22 L 8 23 C 8 17.46 12.46 13 18 13 L 30 13 C 35.54 13 40 17.46 40 23 L 40 22 C 40 16.46 35.54 12 30 12 L 18 12 z"/>
</svg>

<svg xmlns="http://www.w3.org/2000/svg" width="48" height="48" version="1"><rect style="opacity:.2" width="32" height="32" x="8" y="13" rx="10" ry="10"/><path style="fill:#df3d6b" d="M17 4s-5 5-5 9v3h24v-3c0-4-5-9-5-9s-5 5-5 9h-4c0-4-5-9-5-9z"/><path style="opacity:.3" d="M17 8s-3 3-3 5.4h6C20 11 17 8 17 8zm14 0s-3 3-3 5.4h6C34 11 31 8 31 8z"/><path style="opacity:.1;fill:#f4f4f7" d="M17 4s-5 5-5 9h.105C12.795 9.214 17 5 17 5s4.204 4.214 4.895 8H22c0-4-5-9-5-9zm14 0s-5 5-5 9h.105C26.795 9.214 31 5 31 5s4.204 4.214 4.895 8H36c0-4-5-9-5-9z"/><rect style="fill:#f45884" width="32" height="32" x="8" y="12" rx="10" ry="10"/><path style="opacity:.1;isolation:isolate" d="M19.5 17a7.495 7.495 0 0 0-7.5 7.5v9c0 4.146 3.354 7.5 7.5 7.5h9c4.146 0 7.5-3.354 7.5-7.5v-9c0-4.146-3.354-7.5-7.5-7.5zm0 1h9c3.61 0 6.5 2.89 6.5 6.5v9c0 3.61-2.89 6.5-6.5 6.5h-9c-3.61 0-6.5-2.89-6.5-6.5v-9c0-3.61 2.89-6.5 6.5-6.5zm-.5 4.002V36l12-7.002z"/><path style="isolation:isolate;fill:#464646" d="M19.5 16a7.495 7.495 0 0 0-7.5 7.5v9c0 4.146 3.354 7.5 7.5 7.5h9c4.146 0 7.5-3.354 7.5-7.5v-9c0-4.146-3.354-7.5-7.5-7.5h-9zm0 1h9c3.61 0 6.5 2.89 6.5 6.5v9c0 3.61-2.89 6.5-6.5 6.5h-9c-3.61 0-6.5-2.89-6.5-6.5v-9c0-3.61 2.89-6.5 6.5-6.5zm-.5 4.002V35l12-7.002-12-6.996z"/><path style="fill:#f4f4f7;opacity:.2" d="M18 12c-5.54 0-10 4.46-10 10v1c0-5.54 4.46-10 10-10h12c5.54 0 10 4.46 10 10v-1c0-5.54-4.46-10-10-10H18z"/></svg>
